X:1
T:Tracy, 884 D
T:Tracy, 884 D
T:George Lowell Tracy, 1920
T:Public Domain Courtesy of the Cyber Hymnal™
C:George Lowell Tracy, 1920
Z:Public Domain
Z:Courtesy of the Cyber Hymnal™
%%score ( 1 2 ) ( 3 4 )
L:1/8
Q:1/4=95
M:3/4
K:Ab
V:1 treble 
V:2 treble 
V:3 bass 
V:4 bass 
V:1
 [Ec]2 | [Ec][Ec] [Gc][Ac] [G=B][FB] | [Ec]4 [Ec]2 | [Ec][Fc] [Gc][Ac] [G=B][FB] | [Ec]6 | %5
 [Ac]2 [AB]2 A2 | [GB]4 [DE]2 | [Cc][EB] [EB][EA] [=EA][EG] | [=EG]2 F2 F2 | %9
 [Fd][Fc] [Fc][FB] [FB][FA] | [FA]2 G4 | [EG]2 [EFA]2 [EGB]2 | [EA]4 |] %13
V:2
 x2 | x6 | x6 | x6 | x6 | x4 A2 | x6 | x6 | x2 F2 F2 | x6 | x2 G4 | x6 | x4 |] %13
V:3
 A,2 | A,A, [A,E][A,E] [A,=D][A,D] | [A,E]4 [A,E]2 | [A,E][A,E] [A,E][A,E] [A,=D][A,D] | [A,E]6 | %5
 [A,E]2 [F,D]2 [B,D]2 | [E,D]4 [E,G,]2 | [A,,A,][B,,G,] [B,,G,][B,,A,] [B,,A,][B,,A,] | %8
 [D,A,]4 [C,A,]2 | [C,B,][C,=A,] [C,A,][D,B,] [D,B,][=D,B,] | [E,B,]6 | [E,B,]2 [E,C]2 [E,D]2 | %12
 [A,C]4 |] %13
V:4
 A,2 | A,A, x4 | x6 | x6 | x6 | x6 | x6 | x6 | x6 | x6 | x6 | x6 | x4 |] %13

